dist/img/fly-12.svg

<svg width="43" height="55" viewBox="0 0 43 55" fill="none" xmlns="http://www.w3.org/2000/svg">
<path d="M23.891 49.1685L25.992 44.6631" stroke="#191919" stroke-width="2.48559" stroke-linecap="round"/>
<path d="M30.8246 35.6724L32.9255 31.167" stroke="#191919" stroke-width="2.48559" stroke-linecap="round"/>
<path d="M18.9799 35.4093L24.0485 37.7729" stroke="#191919" stroke-width="2.48559" stroke-linecap="round"/>
<path d="M32.3969 42.7067L37.4655 45.0702" stroke="#191919" stroke-width="2.48559" stroke-linecap="round"/>
<path d="M1.93654 11.4543L5.2397 10.252" stroke="#191919" stroke-width="1.75758" stroke-linecap="round"/>
<path d="M12.1515 8.17304L15.4546 6.97079" stroke="#191919" stroke-width="1.75758" stroke-linecap="round"/>
<path d="M6.36062 2.1192L7.71316 5.83525" stroke="#191919" stroke-width="1.75758" stroke-linecap="round"/>
<path d="M9.42038 12.4766L10.7729 16.1927" stroke="#191919" stroke-width="1.75758" stroke-linecap="round"/>
</svg>

<svg width="43" height="55" fill="none" xmlns="http://www.w3.org/2000/svg"><path d="M23.891 49.169l2.101-4.506m4.833-8.991l2.1-4.505M18.98 35.41l5.069 2.363m8.348 4.934l5.069 2.363" stroke="#191919" stroke-width="2.486" stroke-linecap="round"/><path d="M1.937 11.454l3.303-1.202m6.912-2.079l3.303-1.202M6.36 2.12l1.353 3.715m1.707 6.642l1.353 3.716" stroke="#191919" stroke-width="1.758" stroke-linecap="round"/></svg>
